X: 22668
T: Lakes Of Kincora, The
R: hornpipe
M: 4/4
K: Cmajor
c>d (3cBA G>FE>G|c>Gc>d (3efg c'>b|a>gf>e d>ec>d|e>dc>B A2 (3GAB|
c>dc>A G>FE>G|c>Gc>d e>gc'>b|a>gf>e d>ec>d|e>c (3ccB c2:|
g>ag>f g>ec>G|c>eg>a g>c'b>c'|a>b (3c'ba g>e (3cde|(3fed (3edc d>c (3BAG|
c>d (3cBA G2 (3EFG|c>Gc>d e>gc'>b|a2 (3gfe (3ded (3Bcd|e>c (3ccB c2:|
cdcA GFEG|cGcd egc'b|agfe decd|edcB A2 GB|
cdcA GFEG|cGcd egc'b|agfe decd|eccB c2:|
gagf gecG|cega gc'bc'|abc'a gece|fdec dcAB|
cdcA G2 EG|c2 cd egc'b|a2 ge d2 cd|eccB c2:|

